assets/img/create_profile/birthday.svg

<svg width="688" height="479" fill="none" xmlns="http://www.w3.org/2000/svg"><path opacity=".14" d="M239.141 476.096c-15.324-2.296-175.68-28.754-224.98-163.571C-28.885 194.812 32.238 48.001 116.32 18.673c65.715-22.9 95.904 43.217 208.911 40.75 117.541-2.526 144.687-75.3 221.537-56.246 88.615 21.982 162.537 146.008 135.447 235.311-5.682 18.768-19.284 47.35-107.325 105.604-140.096 92.747-224.521 148.59-335.749 132.004z" fill="#FFCE3C"/><path d="m98.127 255.477-6.084 10.56h12.225l-6.141-10.56z" fill="#FFCE3C"/><path d="m47.277 287.732-10.101 6.887 11.02 5.28-.919-12.167z" fill="#0B4870"/><path d="m536.265 291.175-10.101 6.887 11.02 5.281-.919-12.168zM596.125 267.185l10.101-6.887-11.019-5.338.918 12.225z" fill="#FFCE3C"/><path d="m540.453 255.706 10.102-6.887-11.02-5.337.918 12.224z" fill="#FF5B92"/><path d="m99.676 77.788 10.101-6.887-11.02-5.338.92 12.225z" fill="#FFCE3C"/><path d="m142.721 229.879 10.101-6.887-11.019-5.337.918 12.224z" fill="#0B4870"/><path d="m78.268 155.67 6.083 10.618 6.141-10.618H78.268z" fill="#FF5B92"/><path d="m494.367 60.972 6.084 10.617 6.141-10.617h-12.225zM325.516 266.669H216.01v84.999h109.506v-84.999z" fill="#FFCE3C"/><path d="M326.09 266.669h-74.955v84.999h74.955v-84.999z" fill="#FFCE3C"/><path d="M294.753 266.669h-15.61v84.999h15.61v-84.999z" fill="#fff"/><path d="M303.248 215.819h-62.902v50.85h62.902v-50.85z" fill="#FF5B92"/><path opacity=".35" d="M303.478 215.819h-48.267v50.85h48.267v-50.85z" fill="#8BBFE6"/><path d="M285.055 215.819h-13.717v50.85h13.717v-50.85z" fill="#fff"/><path opacity=".13" d="M240.632 266.497h-24.679v84.941h24.679v-84.941z" fill="#000"/><path d="M344.228 174.61s-11.02 55.959 24.449 60.722v18.424h24.22l2.181-81.499-50.85 2.296" fill="#B97A59"/><path d="M381.648 184.137s-35.239 9.126-41.495-3.099 7.92-20.604 20.833-20.833c12.971-.23 30.189 3.615 30.189 3.615s6.715-6.256 12.454-3.615c5.74 2.64 7.921 7.69 7.921 13.2 0 5.51.975 13.2 10.044 20.604 9.125 7.461 33.115 26.86 29.729 48.21-3.329 21.35-20.834 18.71-20.834 18.71s-39.314 1.665-39.314-13.2c0-14.865-1.894-30.935-1.894-30.935s7.92-8.379 1.894-13.889c-5.969-5.51-7.92 2.87-7.92 2.87s-3.788-15.898-1.607-21.638z" fill="#0B4870"/><path d="M365.175 245.892s-10.159 19.342-16.242 34.723c-6.084 15.381-7.347 42.471-4.133 64.854 3.214 22.441-13.774 38.109-9.584 41.323 4.19 3.214 90.968 21.121 89.705-11.88-1.263-33.001-11.192-57.049-11.88-72.086-.632-15.037-2.239-51.883-12.799-57.049-10.56-5.165-35.067.115-35.067.115zM368.045 158.253l44.135 23.417 12.627-57.566-56.762 34.149z" fill="#FFCE3C"/><path d="M534.715 351.036H60.075v93.838h474.64v-93.838z" fill="#fff"/><path d="M427.446 280.386s46.029 84.999-24.507 91.656c-70.536 6.658-104.283-11.478-104.283-11.478l13.373-11.479s92.403 12.225 101.299-2.238c8.895-14.463-10.389-60.894-10.389-60.894l24.507-5.567z" fill="#B97A59"/><path d="m399.956 297.431 33.747-11.88s-17.791-47.521-33.747-39.716c-15.955 7.806 0 51.596 0 51.596z" fill="#FFCE3C"/><path d="M311.973 349.028s-5.911-10.044-15.955-11.881c-10.044-1.836.746 2.985 2.582 5.912 1.837 2.984-17.791 2.238-34.148-.746-3.559-.632-5.682-.804-6.027 0-.918 2.009 9.987 9.814 20.604 14.233 8.954 3.731 16.989 4.821 22.384 5.166 1.32-.46 4.304-1.607 6.887-4.592 2.87-3.214 3.501-6.715 3.673-8.092z" fill="#B97A59"/><path d="M206.599 422.204c29.859 0 54.065-13.31 54.065-29.73 0-16.419-24.206-29.729-54.065-29.729-29.858 0-54.064 13.31-54.064 29.729 0 16.42 24.206 29.73 54.064 29.73z" fill="#D3D3D3"/><path d="m174.287 387.251 34.149-26.687 27.491 15.955-61.64 10.732z" fill="#fff"/><path d="M235.927 376.519v17.792l-57.163 8.896-4.477-15.955" fill="#FFCE3C"/><path d="M183.469 168.929c-5.395 10.158 1.492 20.432 5.968 29.442 2.985 6.027 4.362 12.225 3.272 18.94-.976 6.084-3.501 11.823-6.084 17.39-5.05 10.847-9.757 21.35-11.765 33.288-2.009 11.766-2.009 23.818-.976 35.699 1.148 13.831 3.673 27.491 6.256 41.093.229 1.091 1.894.631 1.664-.459-4.534-23.876-9.125-48.555-5.739-72.889 1.722-12.168 5.969-23.015 11.191-34.034 4.42-9.298 9.011-19.457 7.175-30.017-2.067-12.282-16.3-24.622-9.47-37.592.516-.976-.976-1.837-1.492-.861z" fill="#D3D3D3"/><path d="M222.325 190.967c-14.119 14.291-18.079 34.436-21.236 53.548-1.722 10.503-3.386 21.006-6.256 31.279-3.156 11.479-7.346 22.613-10.904 33.977-3.96 12.627-7.174 25.483-7.519 38.798 0 1.09 1.722 1.09 1.722 0 .574-23.646 10.388-45.513 17.046-67.839 5.854-19.571 6.944-40.118 12.511-59.746 3.042-10.732 7.863-20.834 15.783-28.811.861-.746-.401-2.009-1.147-1.206z" fill="#D3D3D3"/><path d="M188.224 172.909c17.222-6.06 24.788-29.152 16.897-51.577-7.89-22.425-28.248-35.691-45.47-29.632-17.223 6.06-24.788 29.151-16.898 51.577 7.891 22.425 28.248 35.691 45.471 29.632z" fill="#8BBFE6"/><path d="M264.98 169.584c10.277-21.437 5.262-45.212-11.201-53.105-16.463-7.893-38.14 3.086-48.417 24.522-10.277 21.436-5.262 45.212 11.201 53.105 16.463 7.893 38.14-3.086 48.417-24.522z" fill="#FFCE3C"/><path d="M482.486 181.211c-5.108 6.313-8.035 14.348-10.274 22.039-2.64 8.953-4.361 18.251-4.878 27.606-.574 10.675 1.894 21.178 4.362 31.509 3.214 13.315 6.428 26.515 7.059 40.289.689 15.382-1.262 30.706-5.567 45.456-.287 1.09 1.32 1.492 1.664.459 7.347-24.909 7.117-50.391 1.206-75.529-2.755-11.881-6.715-24.048-7.06-36.273-.287-9.01 1.206-18.136 3.272-26.917 2.238-9.413 5.28-19.743 11.478-27.434.689-.803-.516-2.066-1.262-1.205z" fill="#D3D3D3"/><path d="M519.294 158.925c4.455-23.352-6.472-45.057-24.406-48.478-17.935-3.422-36.085 12.735-40.54 36.087-4.455 23.353 6.472 45.057 24.407 48.479 17.934 3.421 36.084-12.736 40.539-36.088z" fill="#FFCE3C"/></svg>

<svg width="688" height="479" viewBox="0 0 688 479" fill="none" xmlns="http://www.w3.org/2000/svg">
<path opacity="0.14" d="M239.141 476.096C223.817 473.8 63.461 447.342 14.1604 312.525C-28.8844 194.812 32.2392 48.001 116.32 18.6732C182.035 -4.22665 212.224 61.8901 325.231 59.4222C442.772 56.8969 469.918 -15.8774 546.768 3.17705C635.383 25.1586 709.305 149.185 682.215 238.488C676.533 257.256 662.931 285.838 574.89 344.092C434.794 436.839 350.369 492.682 239.141 476.096Z" fill="#FFCE3C"/>
<path d="M98.1267 255.477L92.043 266.037H104.268L98.1267 255.477Z" fill="#FFCE3C"/>
<path d="M47.277 287.732L37.1758 294.619L48.1953 299.899L47.277 287.732Z" fill="#0B4870"/>
<path d="M536.265 291.175L526.164 298.062L537.184 303.343L536.265 291.175Z" fill="#FFCE3C"/>
<path d="M596.125 267.185L606.226 260.298L595.207 254.96L596.125 267.185Z" fill="#FFCE3C"/>
<path d="M540.453 255.706L550.555 248.819L539.535 243.482L540.453 255.706Z" fill="#FF5B92"/>
<path d="M99.6761 77.7878L109.777 70.9007L98.7578 65.5631L99.6761 77.7878Z" fill="#FFCE3C"/>
<path d="M142.721 229.879L152.822 222.992L141.803 217.655L142.721 229.879Z" fill="#0B4870"/>
<path d="M78.2676 155.67L84.3513 166.288L90.4923 155.67H78.2676Z" fill="#FF5B92"/>
<path d="M494.367 60.9718L500.451 71.5895L506.592 60.9718H494.367Z" fill="#FFCE3C"/>
<path d="M325.516 266.669H216.01V351.668H325.516V266.669Z" fill="#FFCE3C"/>
<path d="M326.09 266.669H251.135V351.668H326.09V266.669Z" fill="#FFCE3C"/>
<path d="M294.753 266.669H279.143V351.668H294.753V266.669Z" fill="white"/>
<path d="M303.248 215.819H240.346V266.669H303.248V215.819Z" fill="#FF5B92"/>
<path opacity="0.35" d="M303.478 215.819H255.211V266.669H303.478V215.819Z" fill="#8BBFE6"/>
<path d="M285.055 215.819H271.338V266.669H285.055V215.819Z" fill="white"/>
<path opacity="0.13" d="M240.632 266.497H215.953V351.438H240.632V266.497Z" fill="black"/>
<path d="M344.228 174.61C344.228 174.61 333.208 230.569 368.677 235.332V253.756H392.897L395.078 172.257L344.228 174.553" fill="#B97A59"/>
<path d="M381.648 184.137C381.648 184.137 346.409 193.263 340.153 181.038C333.897 168.813 348.073 160.434 360.986 160.205C373.957 159.975 391.175 163.82 391.175 163.82C391.175 163.82 397.89 157.564 403.629 160.205C409.369 162.845 411.55 167.895 411.55 173.405C411.55 178.915 412.525 186.605 421.594 194.009C430.719 201.47 454.709 220.869 451.323 242.219C447.994 263.569 430.489 260.929 430.489 260.929C430.489 260.929 391.175 262.594 391.175 247.729C391.175 232.864 389.281 216.794 389.281 216.794C389.281 216.794 397.201 208.415 391.175 202.905C385.206 197.395 383.255 205.775 383.255 205.775C383.255 205.775 379.467 189.877 381.648 184.137Z" fill="#0B4870"/>
<path d="M365.175 245.892C365.175 245.892 355.016 265.234 348.933 280.615C342.849 295.996 341.586 323.086 344.8 345.469C348.014 367.91 331.026 383.578 335.216 386.792C339.406 390.006 426.184 407.913 424.921 374.912C423.658 341.911 413.729 317.863 413.041 302.826C412.409 287.789 410.802 250.943 400.242 245.777C389.682 240.612 365.175 245.892 365.175 245.892Z" fill="#FFCE3C"/>
<path d="M368.045 158.253L412.18 181.67L424.807 124.104L368.045 158.253Z" fill="#FFCE3C"/>
<path d="M534.715 351.036H60.0742V444.874H534.715V351.036Z" fill="white"/>
<path d="M427.446 280.386C427.446 280.386 473.475 365.385 402.939 372.042C332.403 378.7 298.656 360.564 298.656 360.564L312.029 349.085C312.029 349.085 404.432 361.31 413.328 346.847C422.223 332.384 402.939 285.953 402.939 285.953L427.446 280.386Z" fill="#B97A59"/>
<path d="M399.956 297.431L433.703 285.551C433.703 285.551 415.912 238.03 399.956 245.835C384.001 253.641 399.956 297.431 399.956 297.431Z" fill="#FFCE3C"/>
<path d="M311.973 349.028C311.973 349.028 306.062 338.984 296.018 337.147C285.974 335.311 296.764 340.132 298.6 343.059C300.437 346.043 280.809 345.297 264.452 342.313C260.893 341.681 258.77 341.509 258.425 342.313C257.507 344.322 268.412 352.127 279.029 356.546C287.983 360.277 296.018 361.367 301.413 361.712C302.733 361.252 305.717 360.105 308.3 357.12C311.17 353.906 311.801 350.405 311.973 349.028Z" fill="#B97A59"/>
<path d="M206.599 422.204C236.458 422.204 260.664 408.894 260.664 392.474C260.664 376.055 236.458 362.745 206.599 362.745C176.741 362.745 152.535 376.055 152.535 392.474C152.535 408.894 176.741 422.204 206.599 422.204Z" fill="#D3D3D3"/>
<path d="M174.287 387.251L208.436 360.564L235.927 376.519L174.287 387.251Z" fill="white"/>
<path d="M235.927 376.519V394.311L178.764 403.207L174.287 387.252" fill="#FFCE3C"/>
<path d="M183.469 168.929C178.074 179.087 184.961 189.361 189.437 198.371C192.422 204.398 193.799 210.596 192.709 217.311C191.733 223.395 189.208 229.134 186.625 234.701C181.575 245.548 176.868 256.051 174.86 267.989C172.851 279.755 172.851 291.807 173.884 303.688C175.032 317.519 177.557 331.179 180.14 344.781C180.369 345.872 182.034 345.412 181.804 344.322C177.27 320.446 172.679 295.767 176.065 271.433C177.787 259.265 182.034 248.418 187.256 237.399C191.676 228.101 196.267 217.942 194.431 207.382C192.364 195.1 178.131 182.76 184.961 169.79C185.477 168.814 183.985 167.953 183.469 168.929Z" fill="#D3D3D3"/>
<path d="M222.325 190.967C208.206 205.258 204.246 225.403 201.089 244.515C199.367 255.018 197.703 265.521 194.833 275.794C191.677 287.273 187.487 298.407 183.929 309.771C179.969 322.398 176.755 335.254 176.41 348.569C176.41 349.659 178.132 349.659 178.132 348.569C178.706 324.923 188.52 303.056 195.178 280.73C201.032 261.159 202.122 240.612 207.689 220.984C210.731 210.252 215.552 200.15 223.472 192.173C224.333 191.427 223.071 190.164 222.325 190.967Z" fill="#D3D3D3"/>
<path d="M188.224 172.909C205.446 166.849 213.012 143.757 205.121 121.332C197.231 98.9073 176.873 85.6406 159.651 91.7003C142.428 97.76 134.863 120.851 142.753 143.277C150.644 165.702 171.001 178.968 188.224 172.909Z" fill="#8BBFE6"/>
<path d="M264.98 169.584C275.257 148.147 270.242 124.372 253.779 116.479C237.316 108.586 215.639 119.565 205.362 141.001C195.085 162.437 200.1 186.213 216.563 194.106C233.026 201.999 254.703 191.02 264.98 169.584Z" fill="#FFCE3C"/>
<path d="M482.486 181.211C477.378 187.524 474.451 195.559 472.212 203.25C469.572 212.203 467.851 221.501 467.334 230.856C466.76 241.531 469.228 252.034 471.696 262.365C474.91 275.68 478.124 288.88 478.755 302.654C479.444 318.036 477.493 333.36 473.188 348.11C472.901 349.2 474.508 349.602 474.852 348.569C482.199 323.66 481.969 298.178 476.058 273.04C473.303 261.159 469.343 248.992 468.998 236.767C468.711 227.757 470.204 218.631 472.27 209.85C474.508 200.437 477.55 190.107 483.748 182.416C484.437 181.613 483.232 180.35 482.486 181.211Z" fill="#D3D3D3"/>
<path d="M519.294 158.925C523.749 135.573 512.822 113.868 494.888 110.447C476.953 107.025 458.803 123.182 454.348 146.534C449.893 169.887 460.82 191.591 478.755 195.013C496.689 198.434 514.839 182.277 519.294 158.925Z" fill="#FFCE3C"/>
</svg>
